svg/furkot/mapbox-maki/tennis.svg

<svg viewBox="0 0 512 512" xmlns="http://www.w3.org/2000/svg"><path d="m211.696 151.564c0 31.463-25.509 56.972-56.972 56.972s-56.97-25.509-56.97-56.972 25.507-56.97 56.97-56.97 56.972 25.507 56.972 56.97zm242.314 20.89-59.629-60.389c13.783-29.496 5.985-64.574-18.989-85.456-15.296-16.134-36.28-25.671-58.491-26.587-12.838-.387-25.291 4.402-34.563 13.294-21.178 29.579-15.321 70.587 13.295 93.052 15.294 16.134 36.277 25.671 58.488 26.587 9.313-.134 18.398-2.9 26.207-7.976l59.249 60.388c1.516 2.783 4.426 4.531 7.598 4.558 5.245 0 9.495-4.25 9.495-9.495.467-2.932-.529-5.91-2.66-7.976zm-78.618-66.466c-5.789 5.279-13.45 8.014-21.271 7.595-16.794-.473-32.796-7.253-44.816-18.989-20.631-15.421-26.359-43.891-13.294-66.086 5.34-5.982 12.875-9.545 20.89-9.875 17.782.589 34.596 8.245 46.715 21.268 20.111 15.857 25.171 44.259 11.776 66.087zm20.508 88.875c-7.387-7.45-19.407-7.498-26.856-.111-.038.038-.072.072-.109.111l-51.275 51.653h-186.104c-8.656.095-16.152 6.027-18.23 14.432l-30.005 118.119-27.346 109.005c-3.277 9.852 1.968 20.513 11.774 23.928h6.077c8.093-.061 15.26-5.245 17.851-12.914l30.385-121.157h51.653v113.941c0 10.486 8.504 18.99 18.989 18.99 10.486 0 18.992-8.504 18.992-18.99v-113.941l37.98-93.432h83.936l62.668-62.669c7.133-7.485 6.967-19.305-.38-26.587z"/></svg>

<svg viewBox="0 0 512 512" xmlns="http://www.w3.org/2000/svg"><path d="M 211.696 151.564 C 211.696 183.027 186.187 208.536 154.724 208.536 C 123.261 208.536 97.754 183.027 97.754 151.564 C 97.754 120.101 123.261 94.594 154.724 94.594 C 186.187 94.594 211.696 120.101 211.696 151.564 Z M 454.01 172.454 L 454.01 172.454 L 394.381 112.065 C 408.164 82.569 400.366 47.491 375.392 26.609 C 360.096 10.475 339.112 0.938 316.901 0.022 C 304.063 -0.365 291.61 4.424 282.338 13.316 C 261.16 42.895 267.017 83.903 295.633 106.368 C 310.927 122.502 331.91 132.039 354.121 132.955 C 363.434 132.821 372.519 130.055 380.328 124.979 L 439.577 185.367 L 439.577 185.367 C 441.093 188.15 444.003 189.898 447.175 189.925 C 452.42 189.925 456.67 185.675 456.67 180.43 C 457.137 177.498 456.141 174.52 454.01 172.454 Z M 375.392 105.988 C 369.603 111.267 361.942 114.002 354.121 113.583 C 337.327 113.11 321.325 106.33 309.305 94.594 C 288.674 79.173 282.946 50.703 296.011 28.508 C 301.351 22.526 308.886 18.963 316.901 18.633 C 334.683 19.222 351.497 26.878 363.616 39.901 C 383.727 55.758 388.787 84.16 375.392 105.988 Z M 395.9 194.863 C 388.513 187.413 376.493 187.365 369.044 194.752 C 369.006 194.79 368.972 194.824 368.935 194.863 L 317.66 246.516 L 131.556 246.516 C 122.9 246.611 115.404 252.543 113.326 260.948 L 83.321 379.067 L 83.321 379.067 L 55.975 488.072 C 52.698 497.924 57.943 508.585 67.749 512 L 73.826 512 C 81.919 511.939 89.086 506.755 91.677 499.086 L 122.062 377.929 L 173.715 377.929 L 173.715 491.87 C 173.715 502.356 182.219 510.86 192.704 510.86 C 203.19 510.86 211.696 502.356 211.696 491.87 L 211.696 377.929 L 249.676 284.497 L 333.612 284.497 L 396.28 221.828 C 403.413 214.343 403.247 202.523 395.9 195.241 L 395.9 194.863 Z"/></svg>
